Icons/com_devhd_feedly.svg

<svg viewBox="0 0 48 48" xmlns:xlink="http://www.w3.org/1999/xlink">
 <defs>
  <linearGradient id="0">
   <stop stop-opacity="0"/>
   <stop offset="1"/>
  </linearGradient>
  <linearGradient xlink:href="#0" id="1" gradientUnits="userSpaceOnUse" gradientTransform="translate(4e-7,-48)" y1="47" x2="0" y2="1"/>
  <clipPath id="2">
   <g transform="translate(0,-1004.3622)">
    <rect rx="4" y="1005.36" x="1" height="46" width="46" fill="#1890d0"/>
   </g>
  </clipPath>
  <clipPath id="3">
   <g transform="translate(0,-1004.3622)">
    <rect rx="4" y="1005.36" x="1" height="46" width="46" fill="#1890d0"/>
   </g>
  </clipPath>
 </defs>
 <g>
  <g transform="translate(0,-1004.3622)">
   <path d="m 5,1006.3622 c -2.216,0 -4,1.784 -4,4 l 0,37.25 c 0,2.216 1.784,4 4,4 l 38,0 c 2.216,0 4,-1.784 4,-4 l 0,-37.25 c 0,-2.216 -1.784,-4 -4,-4 l -38,0 z m -4,41.5 0,0.5 c 0,2.216 1.784,4 4,4 l 38,0 c 2.216,0 4,-1.784 4,-4 l 0,-0.5 c 0,2.216 -1.784,4 -4,4 l -38,0 c -2.216,0 -4,-1.784 -4,-4 z" opacity="0.02"/>
   <path d="m 1,1047.6122 0,0.25 c 0,2.216 1.784,4 4,4 l 38,0 c 2.216,0 4,-1.784 4,-4 l 0,-0.25 c 0,2.216 -1.784,4 -4,4 l -38,0 c -2.216,0 -4,-1.784 -4,-4 z" opacity="0.05"/>
   <rect width="46" height="46" x="1" y="1005.61" rx="4" opacity="0.1"/>
  </g>
 </g>
 <g>
  <g transform="translate(0,-1004.3622)">
   <rect rx="4" y="1005.36" x="1" height="46" width="46" fill="#79bf31"/>
  </g>
 </g>
 <g>
  <rect transform="scale(1,-1)" width="46" height="46" x="1" y="-46.998" rx="4" opacity="0.1" fill="url(#1)"/>
 </g>
 <g>
  <g clip-path="url(#2)">
   <g opacity="0.1">
    <g>
     <path d="M 26.398438 12 C 26.074219 12.011719 25.746094 12.144531 25.503906 12.402344 L 14.355469 24.160156 C 13.871094 24.675781 13.882812 25.476562 14.394531 25.960938 L 15.363281 26.878906 L 18.308594 26.761719 L 28.898438 15.601562 C 29.382812 15.085938 29.335938 14.285156 28.824219 13.800781 L 27.292969 12.359375 C 27.039062 12.117188 26.726562 11.992188 26.398438 12 Z M 27.144531 20.921875 C 26.816406 20.929688 26.496094 21.0625 26.25 21.320312 L 19.164062 28.71875 C 18.675781 29.230469 18.691406 30.035156 19.203125 30.519531 L 20.171875 31.398438 L 23.117188 31.320312 L 29.644531 24.519531 C 30.132812 24.007812 30.117188 23.207031 29.605469 22.71875 L 28.039062 21.28125 C 27.785156 21.039062 27.472656 20.910156 27.144531 20.921875 Z M 26.4375 31.199219 C 26.121094 31.195312 25.789062 31.34375 25.542969 31.601562 L 24.050781 33.121094 C 23.558594 33.628906 23.574219 34.480469 24.050781 35 L 24.90625 35.960938 L 27.816406 36 L 28.710938 35.039062 C 29.203125 34.527344 29.226562 33.71875 28.75 33.199219 L 27.292969 31.601562 C 27.054688 31.339844 26.753906 31.242188 26.4375 31.238281 Z M 26.4375 31.199219 "/>
    </g>
   </g>
  </g>
 </g>
 <g>
  <g clip-path="url(#3)">
   <g transform="translate(0,-1)">
    <g>
     <path d="M 26.398438 12 C 26.074219 12.011719 25.746094 12.144531 25.503906 12.402344 L 14.355469 24.160156 C 13.871094 24.675781 13.882812 25.476562 14.394531 25.960938 L 15.363281 26.878906 L 18.308594 26.761719 L 28.898438 15.601562 C 29.382812 15.085938 29.335938 14.285156 28.824219 13.800781 L 27.292969 12.359375 C 27.039062 12.117188 26.726562 11.992188 26.398438 12 Z M 27.144531 20.921875 C 26.816406 20.929688 26.496094 21.0625 26.25 21.320312 L 19.164062 28.71875 C 18.675781 29.230469 18.691406 30.035156 19.203125 30.519531 L 20.171875 31.398438 L 23.117188 31.320312 L 29.644531 24.519531 C 30.132812 24.007812 30.117188 23.207031 29.605469 22.71875 L 28.039062 21.28125 C 27.785156 21.039062 27.472656 20.910156 27.144531 20.921875 Z M 26.4375 31.199219 C 26.121094 31.195312 25.789062 31.34375 25.542969 31.601562 L 24.050781 33.121094 C 23.558594 33.628906 23.574219 34.480469 24.050781 35 L 24.90625 35.960938 L 27.816406 36 L 28.710938 35.039062 C 29.203125 34.527344 29.226562 33.71875 28.75 33.199219 L 27.292969 31.601562 C 27.054688 31.339844 26.753906 31.242188 26.4375 31.238281 Z M 26.4375 31.199219 " fill="#f9f9f9"/>
    </g>
   </g>
  </g>
 </g>
 <g>
  <g transform="translate(0,-1004.3622)">
   <path d="m 1,1043.3622 0,4 c 0,2.216 1.784,4 4,4 l 38,0 c 2.216,0 4,-1.784 4,-4 l 0,-4 c 0,2.216 -1.784,4 -4,4 l -38,0 c -2.216,0 -4,-1.784 -4,-4 z" opacity="0.1"/>
  </g>
 </g>
</svg>

<svg viewBox="0 0 48 48"><defs><linearGradient id="linearGradient3764" x1="1" x2="47" gradientUnits="userSpaceOnUse" gradientTransform="translate(-48.000001,0.00221467)"><stop stop-color="#70af2d" stop-opacity="1"/><stop offset="1" stop-color="#79bf31" stop-opacity="1"/></linearGradient><clipPath id="clipPath-590389056"><g transform="translate(0,-1004.3622)"><rect rx="4" y="1005.36" x="1" height="46" width="46" fill="#1890d0"/></g></clipPath><clipPath id="clipPath-603883935"><g transform="translate(0,-1004.3622)"><rect rx="4" y="1005.36" x="1" height="46" width="46" fill="#1890d0"/></g></clipPath></defs><g><path d="m 1 43 l 0 0.25 c 0 2.216 1.784 4 4 4 l 38 0 c 2.216 0 4 -1.784 4 -4 l 0 -0.25 c 0 2.216 -1.784 4 -4 4 l -38 0 c -2.216 0 -4 -1.784 -4 -4 z m 0 0.5 l 0 0.5 c 0 2.216 1.784 4 4 4 l 38 0 c 2.216 0 4 -1.784 4 -4 l 0 -0.5 c 0 2.216 -1.784 4 -4 4 l -38 0 c -2.216 0 -4 -1.784 -4 -4 z" opacity="0.02"/><path d="m 1 43.25 l 0 0.25 c 0 2.216 1.784 4 4 4 l 38 0 c 2.216 0 4 -1.784 4 -4 l 0 -0.25 c 0 2.216 -1.784 4 -4 4 l -38 0 c -2.216 0 -4 -1.784 -4 -4 z" opacity="0.05"/><path d="m 1 43 l 0 0.25 c 0 2.216 1.784 4 4 4 l 38 0 c 2.216 0 4 -1.784 4 -4 l 0 -0.25 c 0 2.216 -1.784 4 -4 4 l -38 0 c -2.216 0 -4 -1.784 -4 -4 z" opacity="0.1"/></g><g><rect width="46" height="46" x="-47" y="1" rx="4" transform="matrix(0,-1,1,0,0,0)" fill="url(#linearGradient3764)" fill-opacity="1"/></g><g><g clip-path="url(#clipPath-590389056)"><g opacity="0.1"><!-- color: #79bf31 --><g><path d="m 26.398 12 c -0.324 0.012 -0.652 0.145 -0.895 0.402 l -11.148 11.758 c -0.484 0.516 -0.473 1.316 0.039 1.801 l 0.969 0.918 l 2.945 -0.117 l 10.59 -11.16 c 0.484 -0.516 0.438 -1.316 -0.074 -1.801 l -1.531 -1.441 c -0.254 -0.242 -0.566 -0.367 -0.895 -0.359 m 0.746 8.922 c -0.328 0.008 -0.648 0.141 -0.895 0.398 l -7.086 7.398 c -0.488 0.512 -0.473 1.316 0.039 1.801 l 0.969 0.879 l 2.945 -0.078 l 6.527 -6.801 c 0.488 -0.512 0.473 -1.313 -0.039 -1.801 l -1.566 -1.438 c -0.254 -0.242 -0.566 -0.371 -0.895 -0.359 m -0.707 10.277 c -0.316 -0.004 -0.648 0.145 -0.895 0.402 l -1.492 1.52 c -0.492 0.508 -0.477 1.359 0 1.879 l 0.855 0.961 l 2.91 0.039 l 0.895 -0.961 c 0.492 -0.512 0.516 -1.32 0.039 -1.84 l -1.457 -1.598 c -0.238 -0.262 -0.539 -0.359 -0.855 -0.363 m 0 -0.039" fill="#000"/></g></g></g></g><g><g clip-path="url(#clipPath-603883935)"><g transform="translate(0,-1)"><!-- color: #79bf31 --><g><path d="m 26.398 12 c -0.324 0.012 -0.652 0.145 -0.895 0.402 l -11.148 11.758 c -0.484 0.516 -0.473 1.316 0.039 1.801 l 0.969 0.918 l 2.945 -0.117 l 10.59 -11.16 c 0.484 -0.516 0.438 -1.316 -0.074 -1.801 l -1.531 -1.441 c -0.254 -0.242 -0.566 -0.367 -0.895 -0.359 m 0.746 8.922 c -0.328 0.008 -0.648 0.141 -0.895 0.398 l -7.086 7.398 c -0.488 0.512 -0.473 1.316 0.039 1.801 l 0.969 0.879 l 2.945 -0.078 l 6.527 -6.801 c 0.488 -0.512 0.473 -1.313 -0.039 -1.801 l -1.566 -1.438 c -0.254 -0.242 -0.566 -0.371 -0.895 -0.359 m -0.707 10.277 c -0.316 -0.004 -0.648 0.145 -0.895 0.402 l -1.492 1.52 c -0.492 0.508 -0.477 1.359 0 1.879 l 0.855 0.961 l 2.91 0.039 l 0.895 -0.961 c 0.492 -0.512 0.516 -1.32 0.039 -1.84 l -1.457 -1.598 c -0.238 -0.262 -0.539 -0.359 -0.855 -0.363 m 0 -0.039" fill="#f9f9f9"/></g></g></g></g><g><g transform="translate(0,-1004.3622)"><path d="m 1 1043.36 0 4 c 0 2.216 1.784 4 4 4 l 38 0 c 2.216 0 4 -1.784 4 -4 l 0 -4 c 0 2.216 -1.784 4 -4 4 l -38 0 c -2.216 0 -4 -1.784 -4 -4 z" opacity="0.1"/></g></g></svg>
